static/assets/images/tokens/sfrax.svg

<svg width="256" height="256" viewBox="0 0 256 256" fill="none" xmlns="http://www.w3.org/2000/svg">
<path d="M128 256C198.692 256 256 198.692 256 128C256 57.3075 198.692 0 128 0C57.3075 0 0 57.3075 0 128C0 198.692 57.3075 256 128 256Z" fill="black"/>
<path d="M52.6495 51.6127C46.8707 57.6762 42.1031 62.7773 42.055 62.8735C42.0068 63.0179 47.2078 68.119 53.6127 74.1826C60.0176 80.2942 65.6038 85.636 65.989 85.9728L66.7114 86.6465L65.4111 88.8121C53.9979 107.676 51.6382 130.391 58.8136 151.276C60.162 155.223 62.4736 160.275 64.448 163.596C65.4111 165.232 65.8445 166.291 65.7482 166.483C65.6519 166.676 59.8249 172.836 52.794 180.199C45.7631 187.513 40.0324 193.625 39.9361 193.721C39.8879 193.866 59.5841 212.874 61.4623 214.414L62.1846 215.04L73.3089 203.442C79.4248 197.042 85.1555 191.026 86.0223 190.112L87.6597 188.476L89.2007 189.438C97.0503 194.443 106.248 197.908 116.409 199.737C121.514 200.651 131.242 200.892 136.683 200.218C147.182 199.015 157.584 195.502 166.107 190.353L168.323 189.005L170.682 191.315C175.835 196.32 195.098 214.607 195.291 214.703C195.483 214.799 216.624 192.711 216.576 192.422C216.528 192.278 202.033 178.37 193.172 170.045L190.234 167.253L191.582 165.04C202.899 146.223 205.259 123.413 197.939 102.383C196.88 99.303 193.653 92.3732 191.775 89.1971L190.86 87.609L203.236 74.6638C210.027 67.5897 215.565 61.6705 215.516 61.5261C215.324 61.0449 193.653 40.5924 193.364 40.5924C193.172 40.5924 187.73 46.1266 181.229 52.9601C174.728 59.7455 169.334 65.3278 169.189 65.376C169.093 65.4241 168.467 65.1354 167.889 64.7022C166.252 63.5954 162.11 61.3336 159.799 60.2749C152.768 57.0506 146.219 55.0775 138.61 53.9707C134.661 53.3932 122.814 53.297 119.154 53.8263C110.39 55.0775 103.214 57.2431 95.8945 60.9005C93.7756 61.9111 91.3196 63.2585 90.3565 63.836L88.6228 64.8947L86.6484 62.9698C85.5889 61.9111 80.7732 57.3875 76.0057 52.8157C71.2381 48.2921 66.3743 43.6723 65.2185 42.5173L63.0996 40.448L52.6495 51.6127ZM133.505 82.9892C141.162 83.9035 148 86.5022 154.309 90.9295C157.535 93.1913 162.351 98.0037 164.615 101.228C177.472 119.419 175.016 144.154 158.836 159.313C145.015 172.21 125.029 175.098 108.223 166.532C96.0871 160.324 87.5152 148.966 84.7702 135.348C83.9034 131.016 83.9034 122.932 84.7702 118.649C85.5889 114.414 86.6965 111.382 88.7673 107.147C97.0503 90.4964 115.013 80.7755 133.505 82.9892Z" fill="white"/>
<path d="M120.406 133.939C115.461 132.885 111.655 130.776 108.988 127.613C108.252 126.719 107.617 125.757 107.084 124.726C106.02 122.667 105.361 120.334 105.107 117.727C105.027 116.908 104.987 116.061 104.987 115.187C104.987 111.798 105.93 108.748 107.817 106.037C109.769 103.251 112.468 101.067 115.917 99.4852C118.9 98.0784 122.211 97.2689 125.851 97.0566C126.498 97.0189 127.155 97 127.822 97C129.653 97 131.41 97.1395 133.092 97.4186C135.413 97.8038 137.593 98.4551 139.63 99.3722C143.209 100.878 146.039 102.836 148.121 105.246C150.202 107.656 151.341 110.179 151.536 112.815C151.601 113.643 151.341 114.359 150.755 114.961C150.327 115.458 149.831 115.75 149.27 115.837C149.15 115.855 149.027 115.865 148.901 115.865H137.288C136.573 115.865 135.727 115.451 134.751 114.622C133.905 113.869 132.994 113.304 132.019 112.928C131.043 112.476 129.644 112.25 127.822 112.25C126.261 112.25 124.992 112.514 124.016 113.041C123.04 113.568 122.553 114.359 122.553 115.413C122.553 116.317 122.715 116.994 123.04 117.446C123.184 117.612 123.363 117.763 123.577 117.899C123.944 118.132 124.416 118.32 124.992 118.463C125.236 118.519 125.522 118.58 125.851 118.646C126.839 118.844 128.212 119.084 129.969 119.367L136.02 120.496C141.68 121.551 145.909 123.81 148.706 127.274C151.569 130.663 153 134.73 153 139.474C153 142.863 151.992 145.988 149.975 148.85C148.023 151.636 145.16 153.858 141.387 155.515C138.923 156.616 136.158 157.351 133.092 157.72C131.542 157.907 129.916 158 128.213 158C127.409 158 126.621 157.979 125.851 157.936C121.946 157.718 118.472 156.949 115.429 155.628C111.85 153.971 109.085 151.9 107.134 149.415C105.247 146.93 104.206 144.407 104.011 141.846C103.946 141.018 104.173 140.302 104.694 139.7C105.279 139.098 105.93 138.796 106.646 138.796H118.747C119.202 138.796 119.56 138.909 119.82 139.135C120.145 139.286 120.503 139.587 120.894 140.039C121.674 140.867 122.553 141.545 123.528 142.072C124.504 142.524 126.066 142.75 128.213 142.75C130.229 142.75 131.921 142.449 133.287 141.846C134.719 141.169 135.434 140.302 135.434 139.248C135.434 138.043 134.914 137.252 133.873 136.876C132.897 136.424 130.75 135.897 127.432 135.294L120.406 133.939Z" fill="white"/>
<path fill-rule="evenodd" clip-rule="evenodd" d="M108.988 127.613C111.655 130.776 115.461 132.885 120.406 133.939L127.432 135.294C130.75 135.897 132.897 136.424 133.873 136.876C134.914 137.252 135.434 138.043 135.434 139.248C135.434 140.302 134.719 141.169 133.287 141.846C131.921 142.449 130.229 142.75 128.213 142.75C126.066 142.75 124.504 142.524 123.528 142.072C122.553 141.545 121.674 140.867 120.894 140.039C120.503 139.587 120.145 139.286 119.82 139.135C119.56 138.909 119.202 138.796 118.747 138.796H106.646C105.93 138.796 105.279 139.098 104.694 139.7C104.173 140.302 103.946 141.018 104.011 141.846C104.206 144.407 105.247 146.93 107.134 149.415C109.085 151.9 111.85 153.971 115.429 155.628C118.472 156.949 121.946 157.718 125.851 157.936C126.621 157.979 127.409 158 128.213 158C129.916 158 131.542 157.907 133.092 157.72C136.158 157.351 138.923 156.616 141.387 155.515C145.16 153.858 148.023 151.636 149.975 148.85C151.992 145.988 153 142.863 153 139.474C153 134.73 151.569 130.663 148.706 127.274C145.909 123.81 141.68 121.551 136.02 120.496L129.969 119.367C128.212 119.084 126.839 118.844 125.851 118.646C125.522 118.58 125.236 118.519 124.992 118.463C124.416 118.32 123.944 118.132 123.577 117.899C123.363 117.763 123.184 117.612 123.04 117.446C122.715 116.994 122.553 116.317 122.553 115.413C122.553 114.359 123.04 113.568 124.016 113.041C124.992 112.514 126.261 112.25 127.822 112.25C129.644 112.25 131.043 112.476 132.019 112.928C132.994 113.304 133.905 113.869 134.751 114.622C135.727 115.451 136.573 115.865 137.288 115.865H148.901C149.027 115.865 149.15 115.855 149.27 115.837C149.831 115.75 150.327 115.458 150.755 114.961C151.341 114.359 151.601 113.643 151.536 112.815C151.341 110.179 150.202 107.656 148.121 105.246C146.039 102.836 143.209 100.878 139.63 99.3722C137.593 98.4551 135.413 97.8038 133.092 97.4186C131.41 97.1395 129.653 97 127.822 97C127.155 97 126.498 97.0189 125.851 97.0566C122.211 97.2689 118.9 98.0784 115.917 99.4852C112.468 101.067 109.769 103.251 107.817 106.037C105.93 108.748 104.987 111.798 104.987 115.187C104.987 116.061 105.027 116.908 105.107 117.727C105.361 120.334 106.02 122.667 107.084 124.726C107.617 125.757 108.252 126.719 108.988 127.613Z" fill="black"/>
<path fill-rule="evenodd" clip-rule="evenodd" d="M120.406 133.939C115.461 132.885 111.655 130.776 108.988 127.613C108.252 126.719 107.617 125.757 107.084 124.726C106.02 122.667 105.361 120.334 105.107 117.727C105.027 116.908 104.987 116.061 104.987 115.187C104.987 111.798 105.93 108.748 107.817 106.037C109.769 103.251 112.468 101.067 115.917 99.4852C118.9 98.0784 122.211 97.2689 125.851 97.0566C126.498 97.0189 127.155 97 127.822 97C129.653 97 131.41 97.1395 133.092 97.4186C135.413 97.8038 137.593 98.4551 139.63 99.3722C143.209 100.878 146.039 102.836 148.121 105.246C150.202 107.656 151.341 110.179 151.536 112.815C151.601 113.643 151.341 114.359 150.755 114.961C150.327 115.458 149.831 115.75 149.27 115.837C149.15 115.855 149.027 115.865 148.901 115.865H137.288C136.573 115.865 135.727 115.451 134.751 114.622C133.905 113.869 132.994 113.304 132.019 112.928C131.043 112.476 129.644 112.25 127.822 112.25C126.261 112.25 124.992 112.514 124.016 113.041C123.04 113.568 122.553 114.359 122.553 115.413C122.553 116.317 122.715 116.994 123.04 117.446C123.184 117.612 123.363 117.763 123.577 117.899C123.944 118.132 124.416 118.32 124.992 118.463C125.236 118.519 125.522 118.58 125.851 118.646C126.839 118.844 128.212 119.084 129.969 119.367L136.02 120.496C141.68 121.551 145.909 123.81 148.706 127.274C151.569 130.663 153 134.73 153 139.474C153 142.863 151.992 145.988 149.975 148.85C148.023 151.636 145.16 153.858 141.387 155.515C138.923 156.616 136.158 157.351 133.092 157.72C131.542 157.907 129.916 158 128.213 158C127.409 158 126.621 157.979 125.851 157.936C121.946 157.718 118.472 156.949 115.429 155.628C111.85 153.971 109.085 151.9 107.134 149.415C105.247 146.93 104.206 144.407 104.011 141.846C103.946 141.018 104.173 140.302 104.694 139.7C105.279 139.098 105.93 138.796 106.646 138.796H118.747C119.202 138.796 119.56 138.909 119.82 139.135C120.145 139.286 120.503 139.587 120.894 140.039C121.674 140.867 122.553 141.545 123.528 142.072C124.504 142.524 126.066 142.75 128.213 142.75C130.229 142.75 131.921 142.449 133.287 141.846C134.719 141.169 135.434 140.302 135.434 139.248C135.434 138.043 134.914 137.252 133.873 136.876C132.897 136.424 130.75 135.897 127.432 135.294L120.406 133.939Z" fill="white"/>
</svg>

<svg xmlns="http://www.w3.org/2000/svg" fill="none" viewBox="0 0 256 256"><path fill="#000" d="M128 256c70.692 0 128-57.308 128-128S198.692 0 128 0 0 57.308 0 128s57.308 128 128 128"/><path fill="#fff" d="M52.65 51.613c-5.78 6.063-10.547 11.164-10.595 11.26-.048.145 5.153 5.246 11.558 11.31 6.405 6.111 11.99 11.453 12.376 11.79l.722.674-1.3 2.165c-11.413 18.864-13.773 41.579-6.597 62.464 1.348 3.947 3.66 8.999 5.634 12.32.963 1.636 1.397 2.695 1.3 2.887s-5.923 6.353-12.954 13.716c-7.03 7.314-12.762 13.426-12.858 13.522-.048.145 19.648 19.153 21.526 20.693l.723.626 11.124-11.598c6.116-6.4 11.847-12.416 12.713-13.33l1.638-1.636 1.54.962c7.85 5.005 17.048 8.47 27.209 10.299 5.105.914 14.833 1.155 20.274.481 10.499-1.203 20.901-4.716 29.424-9.865l2.216-1.348 2.359 2.31c5.153 5.005 24.416 23.292 24.609 23.388.192.096 21.333-21.992 21.285-22.281-.048-.144-14.543-14.052-23.404-22.377l-2.938-2.792 1.348-2.213c11.317-18.817 13.677-41.627 6.357-62.657-1.059-3.08-4.286-10.01-6.164-13.186l-.915-1.588 12.376-12.945c6.791-7.074 12.329-12.994 12.28-13.138-.192-.481-21.863-20.934-22.152-20.934-.192 0-5.634 5.535-12.135 12.368-6.501 6.785-11.895 12.368-12.04 12.416-.096.048-.722-.24-1.3-.674-1.637-1.107-5.779-3.368-8.09-4.427-7.031-3.224-13.58-5.197-21.189-6.304-3.949-.578-15.796-.674-19.456-.145-8.764 1.252-15.94 3.417-23.26 7.075-2.118 1.01-4.574 2.357-5.538 2.935l-1.733 1.059-1.975-1.925c-1.06-1.059-5.875-5.582-10.642-10.154-4.768-4.524-9.632-9.144-10.787-10.299l-2.12-2.069zm80.855 31.376c7.657.914 14.495 3.513 20.804 7.94 3.226 2.262 8.042 7.075 10.306 10.299 12.857 18.191 10.401 42.926-5.779 58.085-13.821 12.897-33.807 15.785-50.613 7.219-12.136-6.208-20.708-17.566-23.453-31.184-.867-4.332-.867-12.416 0-16.699.819-4.235 1.927-7.267 3.997-11.502 8.283-16.65 26.246-26.372 44.738-24.158"/><path fill="#fff" d="M120.406 133.939q-7.417-1.581-11.418-6.326a16.3 16.3 0 0 1-1.904-2.887q-1.596-3.089-1.977-6.999-.12-1.229-.12-2.54 0-5.084 2.83-9.15 2.927-4.179 8.1-6.552 4.474-2.11 9.934-2.428a34 34 0 0 1 1.971-.057q2.747 0 5.27.419a26.4 26.4 0 0 1 6.538 1.953q5.368 2.259 8.491 5.874t3.415 7.569q.098 1.242-.781 2.146-.643.746-1.485.876-.18.028-.369.028h-11.613q-1.073 0-2.537-1.243a8.9 8.9 0 0 0-2.732-1.694q-1.464-.678-4.197-.678-2.342 0-3.806.791-1.463.79-1.463 2.372 0 1.355.487 2.033.216.249.537.453.55.35 1.415.564.366.084.859.183 1.482.297 4.118.721l6.051 1.129q8.49 1.582 12.686 6.778 4.294 5.084 4.294 12.2 0 5.083-3.025 9.376-2.928 4.18-8.588 6.665-3.696 1.651-8.295 2.205-2.325.28-4.879.28-1.207 0-2.362-.064-5.858-.327-10.422-2.308-5.369-2.486-8.295-6.213-2.83-3.727-3.123-7.569-.098-1.243.683-2.146.878-.904 1.952-.904h12.101q.683 0 1.073.339.488.226 1.074.904 1.17 1.242 2.634 2.033 1.464.678 4.685.678 3.024 0 5.074-.904 2.148-1.016 2.147-2.598 0-1.808-1.561-2.372-1.464-.678-6.441-1.582z"/><path fill="#000" fill-rule="evenodd" d="M108.988 127.613q4 4.745 11.418 6.326l7.026 1.355q4.977.904 6.441 1.582 1.561.564 1.561 2.372 0 1.582-2.147 2.598-2.05.904-5.074.904-3.22 0-4.685-.678a10.4 10.4 0 0 1-2.634-2.033q-.586-.678-1.074-.904-.39-.339-1.073-.339h-12.101q-1.074 0-1.952.904-.781.904-.683 2.146.292 3.841 3.123 7.569 2.926 3.728 8.295 6.213 4.565 1.981 10.422 2.308 1.156.064 2.362.064 2.554 0 4.879-.28 4.599-.554 8.295-2.205 5.66-2.486 8.588-6.665 3.025-4.293 3.025-9.376 0-7.116-4.294-12.2-4.196-5.196-12.686-6.778l-6.051-1.129q-2.636-.424-4.118-.721a32 32 0 0 1-.859-.183q-.864-.215-1.415-.564a2.4 2.4 0 0 1-.537-.453q-.487-.678-.487-2.033 0-1.581 1.463-2.372t3.806-.791q2.733 0 4.197.678a8.9 8.9 0 0 1 2.732 1.694q1.464 1.243 2.537 1.243h11.613q.189 0 .369-.028.842-.13 1.485-.876.879-.904.781-2.146-.293-3.954-3.415-7.569-3.123-3.615-8.491-5.874a26.4 26.4 0 0 0-6.538-1.953 32 32 0 0 0-5.27-.419q-1 0-1.971.057-5.46.318-9.934 2.428-5.173 2.373-8.1 6.552-2.83 4.066-2.83 9.15 0 1.311.12 2.54.381 3.91 1.977 6.999a16.3 16.3 0 0 0 1.904 2.887" clip-rule="evenodd"/><path fill="#fff" fill-rule="evenodd" d="M120.406 133.939q-7.417-1.581-11.418-6.326a16.3 16.3 0 0 1-1.904-2.887q-1.596-3.089-1.977-6.999-.12-1.229-.12-2.54 0-5.084 2.83-9.15 2.927-4.179 8.1-6.552 4.474-2.11 9.934-2.428a34 34 0 0 1 1.971-.057q2.747 0 5.27.419a26.4 26.4 0 0 1 6.538 1.953q5.368 2.259 8.491 5.874t3.415 7.569q.098 1.242-.781 2.146-.643.746-1.485.876-.18.028-.369.028h-11.613q-1.073 0-2.537-1.243a8.9 8.9 0 0 0-2.732-1.694q-1.464-.678-4.197-.678-2.342 0-3.806.791-1.463.79-1.463 2.372 0 1.355.487 2.033.216.249.537.453.55.35 1.415.564.366.084.859.183 1.482.297 4.118.721l6.051 1.129q8.49 1.582 12.686 6.778 4.294 5.084 4.294 12.2 0 5.083-3.025 9.376-2.928 4.18-8.588 6.665-3.696 1.651-8.295 2.205-2.325.28-4.879.28-1.207 0-2.362-.064-5.858-.327-10.422-2.308-5.369-2.486-8.295-6.213-2.83-3.727-3.123-7.569-.098-1.243.683-2.146.878-.904 1.952-.904h12.101q.683 0 1.073.339.488.226 1.074.904 1.17 1.242 2.634 2.033 1.464.678 4.685.678 3.024 0 5.074-.904 2.148-1.016 2.147-2.598 0-1.808-1.561-2.372-1.464-.678-6.441-1.582z" clip-rule="evenodd"/></svg>
